X: 1
T: The Wee Cooper o' Fife
R: jig
M: 6/8
L: 1/8
K: A
E \
| "A"C2E ECE | "D"FGA "A"E3 | "A"EFG "F#m"ABc \
| "Bm"d2c "E7"B2E | "A"C2E ECE | "D"FGA "A"E3 |
| "A"cee ecB | "F#m"A2A ABc | "A"E2E ECE | "D"F2G "A"A2 \
:: d \
| "A"ecA ecA | "D"def "A"e2e | "A"ecA ecA |
| "Bm"d2c "E7"Bcd | "A"ecA ecA | "D"def "E7"e2d \
| "A"cee ecB | "F#m"A2A ABc | "A"E2E ECE | "D"F2G "A"A2 :|

